X: 275
T: Yeng xinchun
L: 1/8
M: 2/4
K: A
AA2B [I:setbarnb 1]| 
e2c B | 
AA2c | 
B4 | 
E3F | 
A2B2 | 
c> B A F | 
AF3 | 
c2c e | 
c BA2 | 
AA2B | 
F E/ F/A2 | 
e> ce2 | 
z a f e | 
c B c e | 
A3B | 
G F E3/ F/ | 
A2B2 | 
G FE2- | 
E2z2 |]

@@@ Tune index: 9149
